images/Arrow-pages.svg

<svg width="24" height="43" viewBox="0 0 24 43" fill="none" xmlns="http://www.w3.org/2000/svg">
    <path d="M13.5 2C13.5 1.17157 12.8284 0.5 12 0.5C11.1716 0.5 10.5 1.17157 10.5 2H13.5ZM10.9393 42.0607C11.5251 42.6464 12.4749 42.6464 13.0607 42.0607L22.6066 32.5147C23.1924 31.9289 23.1924 30.9792 22.6066 30.3934C22.0208 29.8076 21.0711 29.8076 20.4853 30.3934L12 38.8787L3.51472 30.3934C2.92893 29.8076 1.97919 29.8076 1.3934 30.3934C0.807611 30.9792 0.807611 31.9289 1.3934 32.5147L10.9393 42.0607ZM10.5 2L10.5 41H13.5L13.5 2H10.5Z" fill="url(#paint0_linear_328_4855)"/>
    <defs>
    <linearGradient id="paint0_linear_328_4855" x1="12" y1="2" x2="0.407539" y2="5.45452" gradientUnits="userSpaceOnUse">
    <stop stop-color="#3F34EC"/>
    <stop offset="1" stop-color="#13D8D4"/>
    </linearGradient>
    </defs>
</svg>

<svg width="24" height="43" fill="none" xmlns="http://www.w3.org/2000/svg"><path d="M13.5 2a1.5 1.5 0 00-3 0h3zm-2.56 40.06a1.5 1.5 0 002.12 0l9.547-9.545a1.5 1.5 0 10-2.122-2.122L12 38.88l-8.485-8.486a1.5 1.5 0 10-2.122 2.122l9.546 9.546zM10.5 2v39h3V2h-3z" fill="url(#paint0_linear_328_4855)"/><defs><linearGradient id="paint0_linear_328_4855" x1="12" y1="2" x2=".408" y2="5.455" gradientUnits="userSpaceOnUse"><stop stop-color="#3F34EC"/><stop offset="1" stop-color="#13D8D4"/></linearGradient></defs></svg>
